X:170
T:Amazon Cocek (Bb instruments)
M:2/2
L:1/4
C:Frederick E. Wilson copyright 2005
K:DMaj
(b4|b4|b)a/2g/2 ag/2f/2|gf/2e/2 fe/2^d/2|e^d/2=c/2(^d2|^d4)|B/2B/2 =c/2^
d/2 e/2f/2 g/2a/2|
b/2z/2 g/2a/2 g/2f/2 g/2^g/2|
(a4|a4|a)g/2f/2 g f/2e/2|f e/2^d/2  e^d/2=c/2|^d=c/2B/2(B2|B4)|
z/2b/2 a/2g/2 f/2e/2 ^d/2=c/2|1B/2z/2=c/2^d/2 e/2^d/2 =c/2B/2:|2BB=ce||
^d3/2e/2 (f2|f)fgf|a3/2g/2 (f2|f)fgf|a3/2=c'/2(b2|b)a/2g/2 f/2e/2 ^d/2=c
/2|
B/2B/2 A/2G/2 F/2E/2 ^D/2=C/2|1B,B=ce:|2B,zz2||
"16 bar ad lib solo"z4|z4|z4|z4|z4|z4|z4|z4|z4|z4|z4|z4|z4|z4|z4|z4||
